; Generated by StableSliceEngine v6.0
M104 S210 ; Nozzle temp
M140 S60 ; Bed temp
G28 ; Home
G1 Z5 F5000 ; Lift nozzle
G1 X0 Y0 F5000 ; Move to start
G1 E3 F200 ; Prime
G1 F2700 E0 ; Retract
M82 ; E absolute
M107 ; Fan off

;LAYER:0 Z0.20
G0 Z0.60 F7200
G1 Z0.20 F3000
G0 X0.54 Y0.54 F9000
G1 X0.54 Y19.46 E0.8362 F1500
G1 X19.46 Y19.46 E1.6490 F1500
G1 X19.46 Y0.54 E2.4617 F1500
G1 X0.54 Y0.54 E3.2744 F1500
G0 X1.08 Y1.08 F9000
G1 X1.08 Y18.92 E4.0642 F1500
G1 X18.92 Y18.92 E4.8306 F1500
G1 X18.92 Y1.08 E5.5969 F1500
G1 X1.08 Y1.08 E6.3632 F1500

;LAYER:1 Z0.40
G0 Z0.80 F7200
G1 Z0.40 F3000
G0 X0.54 Y0.54 F9000
G1 X0.54 Y19.46 E7.1531 F1500
G1 X19.46 Y19.46 E7.9658 F1500
G1 X19.46 Y0.54 E8.7785 F1500
G1 X19.38 Y0.54 E8.7819 F1500
G1 X19.19 Y0.54 E8.7902 F1500
G1 X0.55 Y0.54 E9.5909 F1500
G0 X1.08 Y1.08 F9000
G1 X1.08 Y18.92 E10.3808 F1500
G1 X18.92 Y18.92 E11.1471 F1500
G1 X18.92 Y1.08 E11.9134 F1500
G1 X1.08 Y1.08 E12.6797 F1500

;LAYER:2 Z0.60
G0 Z1.00 F7200
G1 Z0.60 F3000
G0 X0.54 Y0.54 F9000
G1 X0.54 Y19.46 E13.4696 F1500
G1 X19.46 Y19.46 E14.2823 F1500
G1 X19.46 Y0.54 E15.0950 F1500
G1 X19.07 Y0.54 E15.1116 F1500
G1 X18.78 Y0.54 E15.1241 F1500
G1 X0.82 Y0.54 E15.8957 F1500
G1 X0.54 Y0.54 E15.9078 F1500
G0 X1.08 Y1.08 F9000
G1 X1.08 Y18.92 E16.6976 F1500
G1 X18.92 Y18.92 E17.4639 F1500
G1 X18.92 Y1.08 E18.2303 F1500
G1 X1.08 Y1.08 E18.9966 F1500
M106 S255

;LAYER:3 Z0.80
G0 Z1.20 F7200
G1 Z0.80 F3000
G0 X0.54 Y0.54 F9000
G1 X0.54 Y19.46 E19.7865 F1500
G1 X19.46 Y19.46 E20.5992 F1500
G1 X19.46 Y0.54 E21.4119 F1500
G1 X18.76 Y0.54 E21.4417 F1500
G1 X18.38 Y0.54 E21.4584 F1500
G1 X1.10 Y0.54 E22.2007 F1500
G1 X0.54 Y0.54 E22.2246 F1500
G0 X1.08 Y1.08 F9000
G1 X1.08 Y18.92 E23.0145 F1500
G1 X18.92 Y18.92 E23.7808 F1500
G1 X18.92 Y1.08 E24.5471 F1500
G1 X1.08 Y1.08 E25.3134 F1500
G0 X0.20 Y0.20 F9000
G1 X0.20 Y19.80 E26.0203 F4800
G0 X1.80 Y0.20 F9000
G1 X1.80 Y19.80 E26.0806 F4800
G0 X3.40 Y0.20 F9000
G1 X3.40 Y19.80 E26.1410 F4800
G0 X5.00 Y0.20 F9000
G1 X5.00 Y19.80 E26.2013 F4800
G0 X6.60 Y0.20 F9000
G1 X6.60 Y19.80 E26.2617 F4800
G0 X8.20 Y0.20 F9000
G1 X8.20 Y19.80 E26.3220 F4800
G0 X9.80 Y0.20 F9000
G1 X9.80 Y19.80 E26.3824 F4800
G0 X11.40 Y0.20 F9000
G1 X11.40 Y19.80 E26.4427 F4800
G0 X13.00 Y0.20 F9000
G1 X13.00 Y19.80 E26.5031 F4800
G0 X14.60 Y0.20 F9000
G1 X14.60 Y19.80 E26.5634 F4800
G0 X16.20 Y0.20 F9000
G1 X16.20 Y19.80 E26.6238 F4800
G0 X17.80 Y0.20 F9000
G1 X17.80 Y19.80 E26.6841 F4800
G0 X19.40 Y0.20 F9000
G1 X19.40 Y19.80 E26.7445 F4800
G0 X0.20 Y1.80 F9000
G1 X19.80 Y1.80 E27.4235 F4800
G0 X0.20 Y3.40 F9000
G1 X19.80 Y3.40 E27.4839 F4800
G0 X0.20 Y5.00 F9000
G1 X19.80 Y5.00 E27.5442 F4800
G0 X0.20 Y6.60 F9000
G1 X19.80 Y6.60 E27.6046 F4800
G0 X0.20 Y8.20 F9000
G1 X19.80 Y8.20 E27.6649 F4800
G0 X0.20 Y9.80 F9000
G1 X19.80 Y9.80 E27.7253 F4800
G0 X0.20 Y11.40 F9000
G1 X19.80 Y11.40 E27.7856 F4800
G0 X0.20 Y13.00 F9000
G1 X19.80 Y13.00 E27.8460 F4800
G0 X0.20 Y14.60 F9000
G1 X19.80 Y14.60 E27.9063 F4800
G0 X0.20 Y16.20 F9000
G1 X19.80 Y16.20 E27.9666 F4800
G0 X0.20 Y17.80 F9000
G1 X19.80 Y17.80 E28.0270 F4800
G0 X0.20 Y19.40 F9000
G1 X19.80 Y19.40 E28.0873 F4800
M106 S255

;LAYER:4 Z1.00
G0 Z1.40 F7200
G1 Z1.00 F3000
G0 X0.54 Y0.54 F9000
G1 X0.54 Y19.46 E28.9147 F1500
G1 X19.46 Y19.46 E29.7274 F1500
G1 X19.46 Y0.54 E30.5401 F1500
G1 X18.46 Y0.54 E30.5832 F1500
G1 X17.97 Y0.54 E30.6040 F1500
G1 X3.41 Y0.54 E31.2297 F1500
G1 X1.81 Y0.54 E31.2984 F1500
G1 X1.37 Y0.54 E31.3172 F1500
G1 X0.54 Y0.54 E31.3528 F1500
G0 X1.08 Y1.08 F9000
G1 X1.08 Y18.92 E32.1427 F1500
G1 X18.92 Y18.92 E32.9090 F1500
G1 X18.92 Y1.08 E33.6753 F1500
G1 X1.08 Y1.08 E34.4417 F1500
G0 X0.20 Y0.20 F9000
G1 X0.20 Y19.80 E35.1485 F4800
G0 X1.80 Y0.20 F9000
G1 X1.80 Y19.80 E35.2088 F4800
G0 X3.40 Y0.20 F9000
G1 X3.40 Y19.80 E35.2692 F4800
G0 X5.00 Y0.20 F9000
G1 X5.00 Y19.80 E35.3295 F4800
G0 X6.60 Y0.20 F9000
G1 X6.60 Y19.80 E35.3899 F4800
G0 X8.20 Y0.20 F9000
G1 X8.20 Y19.80 E35.4502 F4800
G0 X9.80 Y0.20 F9000
G1 X9.80 Y19.80 E35.5106 F4800
G0 X11.40 Y0.20 F9000
G1 X11.40 Y19.80 E35.5709 F4800
G0 X13.00 Y0.20 F9000
G1 X13.00 Y19.80 E35.6313 F4800
G0 X14.60 Y0.20 F9000
G1 X14.60 Y19.80 E35.6916 F4800
G0 X16.20 Y0.20 F9000
G1 X16.20 Y19.80 E35.7520 F4800
G0 X17.80 Y0.20 F9000
G1 X17.80 Y19.80 E35.8123 F4800
G0 X19.40 Y0.20 F9000
G1 X19.40 Y19.80 E35.8727 F4800
G0 X0.20 Y1.80 F9000
G1 X19.80 Y1.80 E36.5517 F4800
G0 X0.20 Y3.40 F9000
G1 X19.80 Y3.40 E36.6121 F4800
G0 X0.20 Y5.00 F9000
G1 X19.80 Y5.00 E36.6724 F4800
G0 X0.20 Y6.60 F9000
G1 X19.80 Y6.60 E36.7328 F4800
G0 X0.20 Y8.20 F9000
G1 X19.80 Y8.20 E36.7931 F4800
G0 X0.20 Y9.80 F9000
G1 X19.80 Y9.80 E36.8535 F4800
G0 X0.20 Y11.40 F9000
G1 X19.80 Y11.40 E36.9138 F4800
G0 X0.20 Y13.00 F9000
G1 X19.80 Y13.00 E36.9742 F4800
G0 X0.20 Y14.60 F9000
G1 X19.80 Y14.60 E37.0345 F4800
G0 X0.20 Y16.20 F9000
G1 X19.80 Y16.20 E37.0949 F4800
G0 X0.20 Y17.80 F9000
G1 X19.80 Y17.80 E37.1552 F4800
G0 X0.20 Y19.40 F9000
G1 X19.80 Y19.40 E37.2156 F4800
M106 S255

;LAYER:5 Z1.20
G0 Z1.60 F7200
G1 Z1.20 F3000
G0 X0.54 Y0.54 F9000
G1 X0.54 Y19.46 E38.0429 F1500
G1 X19.46 Y19.46 E38.8556 F1500
G1 X19.46 Y0.54 E39.6683 F1500
G1 X18.15 Y0.54 E39.7247 F1500
G1 X17.57 Y0.54 E39.7497 F1500
G1 X4.09 Y0.54 E40.3287 F1500
G1 X2.17 Y0.54 E40.4111 F1500
G1 X1.64 Y0.54 E40.4337 F1500
G1 X0.54 Y0.54 E40.4810 F1500
G0 X1.08 Y1.08 F9000
G1 X1.08 Y18.92 E41.2709 F1500
G1 X18.92 Y18.92 E42.0372 F1500
G1 X18.92 Y1.08 E42.8036 F1500
G1 X1.08 Y1.08 E43.5699 F1500
G0 X0.20 Y0.20 F9000
G1 X0.20 Y19.80 E44.2767 F4800
G0 X1.80 Y0.20 F9000
G1 X1.80 Y19.80 E44.3371 F4800
G0 X3.40 Y0.20 F9000
G1 X3.40 Y19.80 E44.3974 F4800
G0 X5.00 Y0.20 F9000
G1 X5.00 Y19.80 E44.4578 F4800
G0 X6.60 Y0.20 F9000
G1 X6.60 Y19.80 E44.5181 F4800
G0 X8.20 Y0.20 F9000
G1 X8.20 Y19.80 E44.5785 F4800
G0 X9.80 Y0.20 F9000
G1 X9.80 Y19.80 E44.6388 F4800
G0 X11.40 Y0.20 F9000
G1 X11.40 Y19.80 E44.6991 F4800
G0 X13.00 Y0.20 F9000
G1 X13.00 Y19.80 E44.7595 F4800
G0 X14.60 Y0.20 F9000
G1 X14.60 Y19.80 E44.8198 F4800
G0 X16.20 Y0.20 F9000
G1 X16.20 Y19.80 E44.8802 F4800
G0 X17.80 Y0.20 F9000
G1 X17.80 Y19.80 E44.9405 F4800
G0 X19.40 Y0.20 F9000
G1 X19.40 Y19.80 E45.0009 F4800
G0 X0.20 Y1.80 F9000
G1 X19.80 Y1.80 E45.6800 F4800
G0 X0.20 Y3.40 F9000
G1 X19.80 Y3.40 E45.7403 F4800
G0 X0.20 Y5.00 F9000
G1 X19.80 Y5.00 E45.8007 F4800
G0 X0.20 Y6.60 F9000
G1 X19.80 Y6.60 E45.8610 F4800
G0 X0.20 Y8.20 F9000
G1 X19.80 Y8.20 E45.9213 F4800
G0 X0.20 Y9.80 F9000
G1 X19.80 Y9.80 E45.9817 F4800
G0 X0.20 Y11.40 F9000
G1 X19.80 Y11.40 E46.0420 F4800
G0 X0.20 Y13.00 F9000
G1 X19.80 Y13.00 E46.1024 F4800
G0 X0.20 Y14.60 F9000
G1 X19.80 Y14.60 E46.1627 F4800
G0 X0.20 Y16.20 F9000
G1 X19.80 Y16.20 E46.2231 F4800
G0 X0.20 Y17.80 F9000
G1 X19.80 Y17.80 E46.2834 F4800
G0 X0.20 Y19.40 F9000
G1 X19.80 Y19.40 E46.3438 F4800
M106 S255

;LAYER:6 Z1.40
G0 Z1.80 F7200
G1 Z1.40 F3000
G0 X0.54 Y0.54 F9000
G1 X0.54 Y19.46 E47.1711 F1500
G1 X19.46 Y19.46 E47.9838 F1500
G1 X19.46 Y0.54 E48.7965 F1500
G1 X17.84 Y0.54 E48.8662 F1500
G1 X17.16 Y0.54 E48.8953 F1500
G1 X4.77 Y0.54 E49.4277 F1500
G1 X2.53 Y0.54 E49.5238 F1500
G1 X1.92 Y0.54 E49.5501 F1500
G1 X0.54 Y0.54 E49.6093 F1500
G0 X1.08 Y1.08 F9000
G1 X1.08 Y18.92 E50.3991 F1500
G1 X18.92 Y18.92 E51.1654 F1500
G1 X18.92 Y1.08 E51.9318 F1500
G1 X1.08 Y1.08 E52.6981 F1500
G0 X0.20 Y0.20 F9000
G1 X0.20 Y19.80 E53.4049 F4800
G0 X1.80 Y0.20 F9000
G1 X1.80 Y19.80 E53.4653 F4800
G0 X3.40 Y0.20 F9000
G1 X3.40 Y19.80 E53.5256 F4800
G0 X5.00 Y0.20 F9000
G1 X5.00 Y19.80 E53.5860 F4800
G0 X6.60 Y0.20 F9000
G1 X6.60 Y19.80 E53.6463 F4800
G0 X8.20 Y0.20 F9000
G1 X8.20 Y19.80 E53.7067 F4800
G0 X9.80 Y0.20 F9000
G1 X9.80 Y19.80 E53.7670 F4800
G0 X11.40 Y0.20 F9000
G1 X11.40 Y19.80 E53.8274 F4800
G0 X13.00 Y0.20 F9000
G1 X13.00 Y19.80 E53.8877 F4800
G0 X14.60 Y0.20 F9000
G1 X14.60 Y19.80 E53.9481 F4800
G0 X16.20 Y0.20 F9000
G1 X16.20 Y19.80 E54.0084 F4800
G0 X17.80 Y0.20 F9000
G1 X17.80 Y19.80 E54.0688 F4800
G0 X19.40 Y0.20 F9000
G1 X19.40 Y19.80 E54.1291 F4800
G0 X0.20 Y1.80 F9000
G1 X19.80 Y1.80 E54.8082 F4800
G0 X0.20 Y3.40 F9000
G1 X19.80 Y3.40 E54.8685 F4800
G0 X0.20 Y5.00 F9000
G1 X19.80 Y5.00 E54.9289 F4800
G0 X0.20 Y6.60 F9000
G1 X19.80 Y6.60 E54.9892 F4800
G0 X0.20 Y8.20 F9000
G1 X19.80 Y8.20 E55.0496 F4800
G0 X0.20 Y9.80 F9000
G1 X19.80 Y9.80 E55.1099 F4800
G0 X0.20 Y11.40 F9000
G1 X19.80 Y11.40 E55.1703 F4800
G0 X0.20 Y13.00 F9000
G1 X19.80 Y13.00 E55.2306 F4800
G0 X0.20 Y14.60 F9000
G1 X19.80 Y14.60 E55.2910 F4800
G0 X0.20 Y16.20 F9000
G1 X19.80 Y16.20 E55.3513 F4800
G0 X0.20 Y17.80 F9000
G1 X19.80 Y17.80 E55.4116 F4800
G0 X0.20 Y19.40 F9000
G1 X19.80 Y19.40 E55.4720 F4800
M106 S255

;LAYER:7 Z1.60
G0 Z2.00 F7200
G1 Z1.60 F3000
G0 X0.54 Y0.54 F9000
G1 X0.54 Y19.46 E56.2993 F1500
G1 X19.46 Y19.46 E57.1120 F1500
G1 X19.46 Y0.54 E57.9248 F1500
G1 X19.41 Y0.54 E57.9270 F1500
G1 X17.53 Y0.54 E58.0077 F1500
G1 X16.76 Y0.54 E58.0409 F1500
G1 X2.19 Y0.54 E58.6666 F1500
G1 X0.54 Y0.54 E58.7375 F1500
G0 X1.08 Y1.08 F9000
G1 X1.08 Y18.92 E59.5273 F1500
G1 X18.92 Y18.92 E60.2937 F1500
G1 X18.92 Y1.08 E61.0600 F1500
G1 X1.08 Y1.08 E61.8263 F1500
G0 X0.20 Y0.20 F9000
G1 X0.20 Y19.80 E62.5332 F4800
G0 X1.80 Y0.20 F9000
G1 X1.80 Y19.80 E62.5935 F4800
G0 X3.40 Y0.20 F9000
G1 X3.40 Y19.80 E62.6538 F4800
G0 X5.00 Y0.20 F9000
G1 X5.00 Y19.80 E62.7142 F4800
G0 X6.60 Y0.20 F9000
G1 X6.60 Y19.80 E62.7745 F4800
G0 X8.20 Y0.20 F9000
G1 X8.20 Y19.80 E62.8349 F4800
G0 X9.80 Y0.20 F9000
G1 X9.80 Y19.80 E62.8952 F4800
G0 X11.40 Y0.20 F9000
G1 X11.40 Y19.80 E62.9556 F4800
G0 X13.00 Y0.20 F9000
G1 X13.00 Y19.80 E63.0159 F4800
G0 X14.60 Y0.20 F9000
G1 X14.60 Y19.80 E63.0763 F4800
G0 X16.20 Y0.20 F9000
G1 X16.20 Y19.80 E63.1366 F4800
G0 X17.80 Y0.20 F9000
G1 X17.80 Y19.80 E63.1970 F4800
G0 X19.40 Y0.20 F9000
G1 X19.40 Y19.80 E63.2573 F4800
G0 X0.20 Y1.80 F9000
G1 X19.80 Y1.80 E63.9364 F4800
G0 X0.20 Y3.40 F9000
G1 X19.80 Y3.40 E63.9967 F4800
G0 X0.20 Y5.00 F9000
G1 X19.80 Y5.00 E64.0571 F4800
G0 X0.20 Y6.60 F9000
G1 X19.80 Y6.60 E64.1174 F4800
G0 X0.20 Y8.20 F9000
G1 X19.80 Y8.20 E64.1778 F4800
G0 X0.20 Y9.80 F9000
G1 X19.80 Y9.80 E64.2381 F4800
G0 X0.20 Y11.40 F9000
G1 X19.80 Y11.40 E64.2985 F4800
G0 X0.20 Y13.00 F9000
G1 X19.80 Y13.00 E64.3588 F4800
G0 X0.20 Y14.60 F9000
G1 X19.80 Y14.60 E64.4192 F4800
G0 X0.20 Y16.20 F9000
G1 X19.80 Y16.20 E64.4795 F4800
G0 X0.20 Y17.80 F9000
G1 X19.80 Y17.80 E64.5399 F4800
G0 X0.20 Y19.40 F9000
G1 X19.80 Y19.40 E64.6002 F4800
M106 S255

;LAYER:8 Z1.80
G0 Z2.20 F7200
G1 Z1.80 F3000
G0 X0.54 Y0.54 F9000
G1 X0.54 Y19.46 E65.4275 F1500
G1 X19.46 Y19.46 E66.2403 F1500
G1 X19.46 Y0.54 E67.0530 F1500
G1 X19.33 Y0.54 E67.0584 F1500
G1 X17.22 Y0.54 E67.1492 F1500
G1 X16.35 Y0.54 E67.1866 F1500
G1 X2.46 Y0.54 E67.7830 F1500
G1 X0.59 Y0.54 E67.8635 F1500
G1 X0.54 Y0.54 E67.8657 F1500
G0 X1.08 Y1.08 F9000
G1 X1.08 Y18.92 E68.6556 F1500
G1 X18.92 Y18.92 E69.4219 F1500
G1 X18.92 Y1.08 E70.1882 F1500
G1 X1.08 Y1.08 E70.9545 F1500
G0 X0.20 Y0.20 F9000
G1 X0.20 Y19.80 E71.6614 F4800
G0 X1.80 Y0.20 F9000
G1 X1.80 Y19.80 E71.7217 F4800
G0 X3.40 Y0.20 F9000
G1 X3.40 Y19.80 E71.7821 F4800
G0 X5.00 Y0.20 F9000
G1 X5.00 Y19.80 E71.8424 F4800
G0 X6.60 Y0.20 F9000
G1 X6.60 Y19.80 E71.9028 F4800
G0 X8.20 Y0.20 F9000
G1 X8.20 Y19.80 E71.9631 F4800
G0 X9.80 Y0.20 F9000
G1 X9.80 Y19.80 E72.0235 F4800
G0 X11.40 Y0.20 F9000
G1 X11.40 Y19.80 E72.0838 F4800
G0 X13.00 Y0.20 F9000
G1 X13.00 Y19.80 E72.1441 F4800
G0 X14.60 Y0.20 F9000
G1 X14.60 Y19.80 E72.2045 F4800
G0 X16.20 Y0.20 F9000
G1 X16.20 Y19.80 E72.2648 F4800
G0 X17.80 Y0.20 F9000
G1 X17.80 Y19.80 E72.3252 F4800
G0 X19.40 Y0.20 F9000
G1 X19.40 Y19.80 E72.3855 F4800
G0 X0.20 Y1.80 F9000
G1 X19.80 Y1.80 E73.0646 F4800
G0 X0.20 Y3.40 F9000
G1 X19.80 Y3.40 E73.1250 F4800
G0 X0.20 Y5.00 F9000
G1 X19.80 Y5.00 E73.1853 F4800
G0 X0.20 Y6.60 F9000
G1 X19.80 Y6.60 E73.2457 F4800
G0 X0.20 Y8.20 F9000
G1 X19.80 Y8.20 E73.3060 F4800
G0 X0.20 Y9.80 F9000
G1 X19.80 Y9.80 E73.3663 F4800
G0 X0.20 Y11.40 F9000
G1 X19.80 Y11.40 E73.4267 F4800
G0 X0.20 Y13.00 F9000
G1 X19.80 Y13.00 E73.4870 F4800
G0 X0.20 Y14.60 F9000
G1 X19.80 Y14.60 E73.5474 F4800
G0 X0.20 Y16.20 F9000
G1 X19.80 Y16.20 E73.6077 F4800
G0 X0.20 Y17.80 F9000
G1 X19.80 Y17.80 E73.6681 F4800
G0 X0.20 Y19.40 F9000
G1 X19.80 Y19.40 E73.7284 F4800
M106 S255

;LAYER:9 Z2.00
G0 Z2.40 F7200
G1 Z2.00 F3000
G0 X0.54 Y0.54 F9000
G1 X0.54 Y19.46 E74.5558 F1500
G1 X19.46 Y19.46 E75.3685 F1500
G1 X19.46 Y0.54 E76.1812 F1500
G1 X19.26 Y0.54 E76.1898 F1500
G1 X16.91 Y0.54 E76.2906 F1500
G1 X15.94 Y0.54 E76.3322 F1500
G1 X6.81 Y0.54 E76.7245 F1500
G1 X3.61 Y0.54 E76.8618 F1500
G1 X2.74 Y0.54 E76.8995 F1500
G1 X0.66 Y0.54 E76.9888 F1500
G1 X0.54 Y0.54 E76.9939 F1500
G0 X1.08 Y1.08 F9000
G1 X1.08 Y18.92 E77.7838 F1500
G1 X18.92 Y18.92 E78.5501 F1500
G1 X18.92 Y1.08 E79.3164 F1500
G1 X1.08 Y1.08 E80.0827 F1500
G0 X0.20 Y0.20 F9000
G1 X0.20 Y19.80 E80.7896 F4800
G0 X1.80 Y0.20 F9000
G1 X1.80 Y19.80 E80.8499 F4800
G0 X3.40 Y0.20 F9000
G1 X3.40 Y19.80 E80.9103 F4800
G0 X5.00 Y0.20 F9000
G1 X5.00 Y19.80 E80.9706 F4800
G0 X6.60 Y0.20 F9000
G1 X6.60 Y19.80 E81.0310 F4800
G0 X8.20 Y0.20 F9000
G1 X8.20 Y19.80 E81.0913 F4800
G0 X9.80 Y0.20 F9000
G1 X9.80 Y19.80 E81.1517 F4800
G0 X11.40 Y0.20 F9000
G1 X11.40 Y19.80 E81.2120 F4800
G0 X13.00 Y0.20 F9000
G1 X13.00 Y19.80 E81.2724 F4800
G0 X14.60 Y0.20 F9000
G1 X14.60 Y19.80 E81.3327 F4800
G0 X16.20 Y0.20 F9000
G1 X16.20 Y19.80 E81.3931 F4800
G0 X17.80 Y0.20 F9000
G1 X17.80 Y19.80 E81.4534 F4800
G0 X19.40 Y0.20 F9000
G1 X19.40 Y19.80 E81.5138 F4800
G0 X0.20 Y1.80 F9000
G1 X19.80 Y1.80 E82.1928 F4800
G0 X0.20 Y3.40 F9000
G1 X19.80 Y3.40 E82.2532 F4800
G0 X0.20 Y5.00 F9000
G1 X19.80 Y5.00 E82.3135 F4800
G0 X0.20 Y6.60 F9000
G1 X19.80 Y6.60 E82.3739 F4800
G0 X0.20 Y8.20 F9000
G1 X19.80 Y8.20 E82.4342 F4800
G0 X0.20 Y9.80 F9000
G1 X19.80 Y9.80 E82.4946 F4800
G0 X0.20 Y11.40 F9000
G1 X19.80 Y11.40 E82.5549 F4800
G0 X0.20 Y13.00 F9000
G1 X19.80 Y13.00 E82.6153 F4800
G0 X0.20 Y14.60 F9000
G1 X19.80 Y14.60 E82.6756 F4800
G0 X0.20 Y16.20 F9000
G1 X19.80 Y16.20 E82.7360 F4800
G0 X0.20 Y17.80 F9000
G1 X19.80 Y17.80 E82.7963 F4800
G0 X0.20 Y19.40 F9000
G1 X19.80 Y19.40 E82.8566 F4800
M106 S255

;LAYER:10 Z2.20
G0 Z2.60 F7200
G1 Z2.20 F3000
G0 X0.54 Y0.54 F9000
G1 X0.54 Y19.46 E83.6840 F1500
G1 X19.46 Y19.46 E84.4967 F1500
G1 X19.46 Y0.54 E85.3094 F1500
G1 X19.19 Y0.54 E85.3212 F1500
G1 X16.60 Y0.54 E85.4321 F1500
G1 X15.54 Y0.54 E85.4779 F1500
G1 X7.49 Y0.54 E85.8235 F1500
G1 X3.01 Y0.54 E86.0159 F1500
G1 X0.72 Y0.54 E86.1142 F1500
G1 X0.54 Y0.54 E86.1221 F1500
G0 X1.08 Y1.08 F9000
G1 X1.08 Y18.92 E86.9120 F1500
G1 X18.92 Y18.92 E87.6783 F1500
G1 X18.92 Y1.08 E88.4446 F1500
G1 X1.08 Y1.08 E89.2110 F1500
G0 X0.20 Y0.20 F9000
G1 X0.20 Y19.80 E89.9178 F4800
G0 X1.80 Y0.20 F9000
G1 X1.80 Y19.80 E89.9782 F4800
G0 X3.40 Y0.20 F9000
G1 X3.40 Y19.80 E90.0385 F4800
G0 X5.00 Y0.20 F9000
G1 X5.00 Y19.80 E90.0988 F4800
G0 X6.60 Y0.20 F9000
G1 X6.60 Y19.80 E90.1592 F4800
G0 X8.20 Y0.20 F9000
G1 X8.20 Y19.80 E90.2195 F4800
G0 X9.80 Y0.20 F9000
G1 X9.80 Y19.80 E90.2799 F4800
G0 X11.40 Y0.20 F9000
G1 X11.40 Y19.80 E90.3402 F4800
G0 X13.00 Y0.20 F9000
G1 X13.00 Y19.80 E90.4006 F4800
G0 X14.60 Y0.20 F9000
G1 X14.60 Y19.80 E90.4609 F4800
G0 X16.20 Y0.20 F9000
G1 X16.20 Y19.80 E90.5213 F4800
G0 X17.80 Y0.20 F9000
G1 X17.80 Y19.80 E90.5816 F4800
G0 X19.40 Y0.20 F9000
G1 X19.40 Y19.80 E90.6420 F4800
G0 X0.20 Y1.80 F9000
G1 X19.80 Y1.80 E91.3210 F4800
G0 X0.20 Y3.40 F9000
