;FLAVOR:Marlin
;TIME:1582
;Filament used: 1.77215m
;Layer height: 0.2
;MINX:102.25
;MINY:83.75
;MINZ:0.2
;MAXX:144.75
;MAXY:126.25
;MAXZ:20
;TARGET_MACHINE.NAME:Flying Bear Ghost 5
;Generated with Cura_SteamEngine 5.7.1
M140 S70
M105
M190 S70
M104 S215
M105
M109 S215
M82 ;absolute extrusion mode
M220 S100 ;reset feedrate
M221 S100 ;reset flowrate
G90 ;use absolute coordinates
M82 ;absolute extrusion mode
G28 ;home
G1 Z2 F1500 ;raise z
G92 E0 ;reset extruder

G1 X75 Y5 F5000 ;start position
G1 Z0.20 F1500 ;lower z
G1 E4 F500 ;prime the filament
G1 X180 E10 F500 ;1st line
G1 Y5.4 F5000
G1 X75 E20 F500 ;2nd line
G1 Z2 F1500 ;raise z
G92 E0 ;reset extruder
G92 E0
G92 E0
G1 F1500 E-6.5
;LAYER_COUNT:100
;LAYER:0
M107
G0 F6000 X105.084 Y87.555 Z0.2
;TYPE:SKIRT
G1 F1500 E0
G1 F900 X105.774 Y86.84 E0.04131
G1 X106.456 Y86.245 E0.07894
G1 X107.331 Y85.609 E0.12391
G1 X108.184 Y85.099 E0.16523
G1 X108.998 Y84.703 E0.20287
G1 X109.965 Y84.332 E0.24593
G1 X110.88 Y84.072 E0.28547
G1 X111.956 Y83.869 E0.331
G1 X113.2 Y83.763 E0.3829
G1 X113.808 Y83.75 E0.40819
G1 X132.807 Y83.75 E1.19807
G1 X133.697 Y83.763 E1.23508
G1 X134.688 Y83.824 E1.27636
G1 X135.583 Y83.956 E1.31397
G1 X136.636 Y84.209 E1.359
G1 X137.494 Y84.497 E1.39662
G1 X138.487 Y84.931 E1.44168
G1 X139.356 Y85.41 E1.48293
G1 X140.109 Y85.913 E1.52058
G1 X140.918 Y86.561 E1.56367
G1 X141.665 Y87.281 E1.60681
G1 X142.26 Y87.963 E1.64444
G1 X142.872 Y88.802 E1.68761
G1 X143.405 Y89.694 E1.73081
G1 X143.8 Y90.508 E1.76843
G1 X144.17 Y91.476 E1.81151
G1 X144.45 Y92.476 E1.85469
G1 X144.633 Y93.466 E1.89655
G1 X144.737 Y94.701 E1.94807
G1 X144.75 Y95.33 E1.97423
G1 X144.749 Y114.404 E2.76723
G1 X144.738 Y115.175 E2.79929
G1 X144.679 Y116.166 E2.84056
G1 X144.548 Y117.062 E2.87821
G1 X144.297 Y118.115 E2.92322
G1 X143.981 Y119.055 E2.96445
G1 X143.62 Y119.886 E3.00212
G1 X143.125 Y120.798 E3.04526
G1 X142.601 Y121.59 E3.08474
G1 X141.924 Y122.435 E3.12975
G1 X141.235 Y123.151 E3.17107
G1 X140.485 Y123.802 E3.21236
G1 X139.718 Y124.36 E3.25179
G1 X138.906 Y124.851 E3.29124
G1 X137.932 Y125.326 E3.33629
G1 X137.004 Y125.678 E3.37756
G1 X136.133 Y125.926 E3.41521
G1 X135.056 Y126.13 E3.46078
G1 X133.799 Y126.237 E3.51323
G1 X133.17 Y126.25 E3.53939
G1 X114.062 Y126.249 E4.33381
G1 X113.32 Y126.238 E4.36466
G1 X112.327 Y126.179 E4.40601
G1 X111.431 Y126.047 E4.44367
G1 X110.38 Y125.796 E4.48859
G1 X109.44 Y125.479 E4.52984
G1 X108.61 Y125.118 E4.56747
G1 X107.697 Y124.622 E4.61066
G1 X106.832 Y124.044 E4.65392
G1 X106.061 Y123.421 E4.69513
G1 X105.407 Y122.795 E4.73277
G1 X104.695 Y121.981 E4.77773
G1 X104.161 Y121.25 E4.81536
G1 X103.602 Y120.322 E4.8604
G1 X103.189 Y119.469 E4.89981
G1 X102.848 Y118.584 E4.93924
G1 X102.563 Y117.584 E4.98247
G1 X102.369 Y116.549 E5.02625
G1 X102.263 Y115.289 E5.07882
G1 X102.25 Y114.658 E5.10506
G1 X102.251 Y95.521 E5.90068
G1 X102.262 Y94.812 E5.93016
G1 X102.322 Y93.82 E5.97148
G1 X102.454 Y92.925 E6.00909
G1 X102.706 Y91.872 E6.05411
G1 X102.993 Y91.014 E6.09172
G1 X103.425 Y90.022 E6.1367
G1 X103.859 Y89.227 E6.17436
G1 X104.46 Y88.327 E6.21935
G1 X105.084 Y87.555 E6.26062
G0 F6000 X105.444 Y87.902
G1 F900 X106.103 Y87.217 E6.30014
G1 X106.785 Y86.622 E6.33777
G1 X107.588 Y86.038 E6.37905
G1 X108.403 Y85.549 E6.41857
G1 X109.217 Y85.153 E6.4562
G1 X110.102 Y84.813 E6.49562
G1 X111.017 Y84.553 E6.53516
G1 X111.999 Y84.367 E6.57672
G1 X113.211 Y84.263 E6.62729
G1 X113.819 Y84.25 E6.65257
G1 X132.8 Y84.25 E7.44171
G1 X133.667 Y84.262 E7.47776
G1 X134.615 Y84.319 E7.51725
G1 X135.51 Y84.451 E7.55486
G1 X136.477 Y84.683 E7.5962
G1 X137.335 Y84.971 E7.63383
G1 X138.246 Y85.369 E7.67516
G1 X139.078 Y85.826 E7.71463
G1 X139.831 Y86.329 E7.75228
G1 X140.572 Y86.922 E7.79173
G1 X141.288 Y87.61 E7.83302
G1 X141.883 Y88.292 E7.87064
G1 X142.468 Y89.096 E7.91198
G1 X142.955 Y89.912 E7.95149
G1 X143.35 Y90.726 E7.98911
G1 X143.703 Y91.654 E8.03039
G1 X143.959 Y92.568 E8.06985
G1 X144.135 Y93.508 E8.10961
G1 X144.237 Y94.711 E8.1598
G1 X144.25 Y95.33 E8.18554
G1 X144.249 Y114.397 E8.97826
G1 X144.239 Y115.146 E9.0094
G1 X144.184 Y116.094 E9.04888
G1 X144.053 Y116.99 E9.08653
G1 X143.823 Y117.956 E9.12781
G1 X143.522 Y118.856 E9.16726
G1 X143.161 Y119.687 E9.20493
G1 X142.708 Y120.522 E9.24443
G1 X142.184 Y121.314 E9.28391
G1 X141.563 Y122.089 E9.3252
G1 X140.906 Y122.774 E9.36466
G1 X140.19 Y123.398 E9.40415
G1 X139.459 Y123.932 E9.44178
G1 X138.647 Y124.423 E9.48123
G1 X137.754 Y124.859 E9.52255
G1 X136.867 Y125.197 E9.56201
G1 X135.996 Y125.445 E9.59966
G1 X135.013 Y125.632 E9.64127
G1 X133.789 Y125.737 E9.69234
G1 X133.17 Y125.75 E9.71808
G1 X114.069 Y125.749 E10.51221
G1 X113.349 Y125.739 E10.54215
G1 X112.4 Y125.684 E10.58167
G1 X111.504 Y125.552 E10.61932
G1 X110.539 Y125.322 E10.66056
G1 X109.639 Y125.02 E10.70003
G1 X108.809 Y124.659 E10.73766
G1 X107.974 Y124.206 E10.77716
G1 X107.146 Y123.655 E10.81851
G1 X106.407 Y123.06 E10.85795
G1 X105.753 Y122.434 E10.89559
G1 X105.099 Y121.686 E10.9369
G1 X104.565 Y120.955 E10.97454
G1 X104.052 Y120.103 E11.01588
G1 X103.656 Y119.289 E11.05352
G1 X103.315 Y118.404 E11.09295
G1 X103.044 Y117.448 E11.13426
G1 X102.867 Y116.507 E11.17407
G1 X102.763 Y115.279 E11.22531
G1 X102.75 Y114.658 E11.25113
G1 X102.751 Y95.528 E12.04646
G1 X102.761 Y94.841 E12.07503
G1 X102.817 Y93.893 E12.11451
G1 X102.949 Y92.998 E12.15212
G1 X103.18 Y92.031 E12.19346
G1 X103.467 Y91.173 E12.23107
G1 X103.864 Y90.262 E12.27239
G1 X104.298 Y89.467 E12.31004
G1 X104.849 Y88.641 E12.35132
G1 X105.444 Y87.902 E12.39077
G0 F6000 X105.805 Y88.248
G1 F900 X106.432 Y87.594 E12.42843
G1 X107.114 Y86.999 E12.46606
G1 X107.846 Y86.466 E12.50371
G1 X108.622 Y85.999 E12.54136
G1 X109.436 Y85.603 E12.579
G1 X110.281 Y85.28 E12.61661
G1 X111.153 Y85.034 E12.65428
G1 X112.042 Y84.865 E12.6919
G1 X113.222 Y84.763 E12.74114
G1 X113.83 Y84.75 E12.76642
G1 X132.793 Y84.75 E13.55481
G1 X133.638 Y84.761 E13.58995
G1 X134.542 Y84.814 E13.6276
G1 X135.437 Y84.946 E13.66521
G1 X136.318 Y85.157 E13.70287
G1 X137.176 Y85.445 E13.7405
G1 X138.006 Y85.808 E13.77816
G1 X138.8 Y86.242 E13.81578
G1 X139.553 Y86.745 E13.85343
G1 X140.259 Y87.312 E13.89108
G1 X140.911 Y87.939 E13.92868
G1 X141.506 Y88.621 E13.96631
G1 X142.039 Y89.353 E14.00396
G1 X142.505 Y90.13 E14.04163
G1 X142.9 Y90.944 E14.07924
G1 X143.222 Y91.79 E14.11688
G1 X143.468 Y92.661 E14.15451
G1 X143.637 Y93.551 E14.19217
G1 X143.737 Y94.722 E14.24103
G1 X143.75 Y95.33 E14.26631
G1 X143.749 Y114.391 E15.05878
G1 X143.74 Y115.118 E15.08901
G1 X143.689 Y116.022 E15.12665
G1 X143.558 Y116.918 E15.1643
G1 X143.349 Y117.798 E15.2019
G1 X143.063 Y118.657 E15.23954
G1 X142.702 Y119.488 E15.27721
G1 X142.269 Y120.283 E15.31485
G1 X141.768 Y121.037 E15.35248
G1 X141.202 Y121.744 E15.39014
G1 X140.577 Y122.398 E15.42775
G1 X139.895 Y122.994 E15.4654
G1 X139.164 Y123.528 E15.50304
G1 X138.389 Y123.995 E15.54066
G1 X137.575 Y124.392 E15.57831
G1 X136.73 Y124.716 E15.61593
G1 X135.859 Y124.964 E15.65359
G1 X134.97 Y125.134 E15.69122
G1 X133.778 Y125.237 E15.74096
G1 X133.17 Y125.25 E15.76624
G1 X114.075 Y125.249 E16.56012
G1 X113.377 Y125.24 E16.58914
G1 X112.473 Y125.189 E16.62678
G1 X111.577 Y125.057 E16.66444
G1 X110.697 Y124.848 E16.70204
G1 X109.838 Y124.561 E16.7397
G1 X109.008 Y124.2 E16.77733
G1 X108.213 Y123.767 E16.81496
G1 X107.459 Y123.265 E16.85262
G1 X106.753 Y122.699 E16.89024
G1 X106.099 Y122.073 E16.92788
G1 X105.503 Y121.391 E16.96554
G1 X104.969 Y120.66 E17.00317
G1 X104.502 Y119.884 E17.04083
G1 X104.106 Y119.07 E17.07846
G1 X103.782 Y118.225 E17.11609
G1 X103.535 Y117.354 E17.15373
G1 X103.365 Y116.465 E17.19136
G1 X103.263 Y115.268 E17.2413
G1 X103.25 Y114.658 E17.26667
G1 X103.251 Y95.535 E18.06171
G1 X103.26 Y94.87 E18.08936
G1 X103.312 Y93.966 E18.12701
G1 X103.444 Y93.071 E18.16462
G1 X103.654 Y92.19 E18.20227
G1 X103.941 Y91.332 E18.23989
G1 X104.303 Y90.502 E18.27753
G1 X104.737 Y89.707 E18.31519
G1 X105.239 Y88.954 E18.35282
G1 X105.805 Y88.248 E18.39044
G1 F1500 E11.89044
;MESH:xyzCalibration_cube.stl
G0 F6000 X112.835 Y95.414
G0 X113.914 Y95.414
G0 X131.928 Y96.572
G0 X132.1 Y113.6
;TYPE:WALL-INNER
G1 F1500 E18.39044
G1 F900 X132.1 Y96.4 E18.96251
G1 X114.9 Y96.4 E19.53458
G1 X114.9 Y113.6 E20.10666
G1 X132.1 Y113.6 E20.67873
G0 F6000 X132.5 Y114
G1 F900 X132.5 Y96 E21.27742
G1 X114.5 Y96 E21.8761
G1 X114.5 Y114 E22.47478
G1 X132.5 Y114 E23.07346
G0 F6000 X132.9 Y114.4
G1 F900 X132.9 Y95.6 E23.69875
G1 X114.1 Y95.6 E24.32404
G1 X114.1 Y114.4 E24.94933
G1 X132.9 Y114.4 E25.57463
G0 F6000 X133.3 Y114.8
;TYPE:WALL-OUTER
G1 F900 X133.3 Y95.2 E26.22652
G1 X113.7 Y95.2 E26.87842
G1 X113.7 Y114.8 E27.53032
G1 X133.3 Y114.8 E28.18222
G0 F6000 X133.03 Y114.53
G0 X132 Y113.24
G0 X131.74 Y113.24
;TYPE:SKIN
G1 F900 X115.26 Y113.24 E28.73035
G1 X115.26 Y96.76 E29.27847
G1 X131.74 Y96.76 E29.8266
G1 X131.74 Y113.24 E30.37473
G0 F6000 X132 Y113.24
G0 X132 Y97.033
G0 X131.54 Y97.033
G1 F900 X131.467 Y96.961 E30.37814
G0 F6000 X130.902 Y96.961
G1 F900 X131.54 Y97.599 E30.40815
G0 F6000 X131.54 Y98.165
G1 F900 X130.336 Y96.961 E30.46478
G0 F6000 X129.77 Y96.961
G1 F900 X131.54 Y98.73 E30.54801
G0 F6000 X131.54 Y99.296
G1 F900 X129.205 Y96.961 E30.65784
G0 F6000 X128.639 Y96.961
G1 F900 X131.54 Y99.862 E30.7943
G0 F6000 X131.54 Y100.428
G1 F900 X128.073 Y96.961 E30.95737
G0 F6000 X127.508 Y96.961
G1 F900 X131.54 Y100.993 E31.14703
G0 F6000 X131.54 Y101.559
G1 F900 X126.942 Y96.961 E31.3633
G0 F6000 X126.376 Y96.961
G1 F900 X131.54 Y102.125 E31.6062
G0 F6000 X131.54 Y102.69
G1 F900 X125.811 Y96.961 E31.87568
G0 F6000 X125.245 Y96.961
G1 F900 X131.54 Y103.256 E32.17177
G0 F6000 X131.54 Y103.822
G1 F900 X124.679 Y96.961 E32.49449
G0 F6000 X124.114 Y96.961
G1 F900 X131.54 Y104.387 E32.84379
G0 F6000 X131.54 Y104.953
G1 F900 X123.548 Y96.961 E33.21971
G0 F6000 X122.982 Y96.961
G1 F900 X131.54 Y105.519 E33.62225
G0 F6000 X131.54 Y106.084
G1 F900 X122.416 Y96.961 E34.05139
G0 F6000 X121.851 Y96.961
G1 F900 X131.54 Y106.65 E34.50713
G0 F6000 X131.54 Y107.216
G1 F900 X121.285 Y96.961 E34.9895
G0 F6000 X120.719 Y96.961
G1 F900 X131.54 Y107.781 E35.49846
G0 F6000 X131.54 Y108.347
G1 F900 X120.154 Y96.961 E36.03402
G0 F6000 X119.588 Y96.961
G1 F900 X131.54 Y108.913 E36.59621
G0 F6000 X131.54 Y109.479
G1 F900 X119.022 Y96.961 E37.18502
G0 F6000 X118.457 Y96.961
G1 F900 X131.54 Y110.044 E37.8004
G0 F6000 X131.54 Y110.61
G1 F900 X117.891 Y96.961 E38.44241
G0 F6000 X117.325 Y96.961
G1 F900 X131.54 Y111.176 E39.11104
G0 F6000 X131.54 Y111.741
G1 F900 X116.76 Y96.961 E39.80624
G0 F6000 X116.194 Y96.961
G1 F900 X131.54 Y112.307 E40.52807
G0 F6000 X131.54 Y112.873
G1 F900 X115.628 Y96.961 E41.27653
G0 F6000 X115.46 Y97.358
G1 F900 X131.142 Y113.04 E42.01416
G0 F6000 X130.576 Y113.04
G1 F900 X115.46 Y97.924 E42.72517
G0 F6000 X115.46 Y98.489
G1 F900 X130.011 Y113.04 E43.4096
G0 F6000 X129.445 Y113.04
G1 F900 X115.46 Y99.055 E44.06741
G0 F6000 X115.46 Y99.621
G1 F900 X128.879 Y113.04 E44.6986
G0 F6000 X128.314 Y113.04
G1 F900 X115.46 Y100.186 E45.30322
G0 F6000 X115.46 Y100.752
G1 F900 X127.748 Y113.04 E45.88121
G0 F6000 X127.182 Y113.04
G1 F900 X115.46 Y101.318 E46.43257
G0 F6000 X115.46 Y101.883
G1 F900 X126.617 Y113.04 E46.95736
G0 F6000 X126.051 Y113.04
G1 F900 X115.46 Y102.449 E47.45553
G0 F6000 X115.46 Y103.015
G1 F900 X125.485 Y113.04 E47.92708
G0 F6000 X124.92 Y113.04
G1 F900 X115.46 Y103.581 E48.37202
G0 F6000 X115.46 Y104.146
G1 F900 X124.354 Y113.04 E48.79037
G0 F6000 X123.788 Y113.04
G1 F900 X115.46 Y104.712 E49.18209
G0 F6000 X115.46 Y105.278
G1 F900 X123.223 Y113.04 E49.54722
G0 F6000 X122.657 Y113.04
G1 F900 X115.46 Y105.843 E49.88574
G0 F6000 X115.46 Y106.409
G1 F900 X122.091 Y113.04 E50.19764
G0 F6000 X121.525 Y113.04
G1 F900 X115.46 Y106.975 E50.48292
G0 F6000 X115.46 Y107.54
G1 F900 X120.96 Y113.04 E50.74163
G0 F6000 X120.394 Y113.04
G1 F900 X115.46 Y108.106 E50.97371
G0 F6000 X115.46 Y108.672
G1 F900 X119.828 Y113.04 E51.17916
G0 F6000 X119.263 Y113.04
G1 F900 X115.46 Y109.237 E51.35805
G0 F6000 X115.46 Y109.803
G1 F900 X118.697 Y113.04 E51.5103
G0 F6000 X118.131 Y113.04
G1 F900 X115.46 Y110.369 E51.63594
G0 F6000 X115.46 Y110.934
G1 F900 X117.566 Y113.04 E51.735
G0 F6000 X117 Y113.04
G1 F900 X115.46 Y111.5 E51.80744
G0 F6000 X115.46 Y112.066
G1 F900 X116.434 Y113.04 E51.85325
G0 F6000 X115.869 Y113.04
G1 F900 X115.46 Y112.632 E51.87246
G0 F6000 X114.7 Y112.632
G1 F1500 E45.37246
;MESH:NONMESH
G0 F300 X114.7 Y112.632 Z0.4
G0 F6000 X113.914 Y95.414
G0 X112.835 Y95.414
G0 X105.805 Y88.248
;TIME_ELAPSED:104.263841
;LAYER:1
M106 S85
;TYPE:SKIRT
G1 F1500 E51.87246
G1 F900 X106.432 Y87.594 E51.91013
G1 X107.114 Y86.999 E51.94776
G1 X107.846 Y86.466 E51.98541
G1 X108.622 Y85.999 E52.02306
G1 X109.436 Y85.603 E52.06069
G1 X110.281 Y85.28 E52.09831
G1 X111.153 Y85.034 E52.13597
G1 X112.042 Y84.865 E52.1736
G1 X113.222 Y84.763 E52.22284
G1 X113.83 Y84.75 E52.24812
G1 X132.793 Y84.75 E53.03651
G1 X133.638 Y84.761 E53.07164
G1 X134.542 Y84.814 E53.10929
G1 X135.437 Y84.946 E53.14691
G1 X136.318 Y85.157 E53.18457
G1 X137.176 Y85.445 E53.2222
G1 X138.006 Y85.808 E53.25986
G1 X138.8 Y86.242 E53.29748
G1 X139.553 Y86.745 E53.33513
G1 X140.259 Y87.312 E53.37277
G1 X140.911 Y87.939 E53.41038
G1 X141.506 Y88.621 E53.44801
G1 X142.039 Y89.353 E53.48566
G1 X142.505 Y90.13 E53.52332
G1 X142.9 Y90.944 E53.56094
G1 X143.222 Y91.79 E53.59857
G1 X143.468 Y92.661 E53.6362
G1 X143.637 Y93.551 E53.67387
G1 X143.737 Y94.722 E53.72273
G1 X143.75 Y95.33 E53.74801
G1 X143.749 Y114.391 E54.54048
G1 X143.74 Y115.118 E54.5707
G1 X143.689 Y116.022 E54.60835
G1 X143.558 Y116.918 E54.64599
G1 X143.349 Y117.798 E54.6836
G1 X143.063 Y118.657 E54.72124
G1 X142.702 Y119.488 E54.75891
G1 X142.269 Y120.283 E54.79654
G1 X141.768 Y121.037 E54.83418
G1 X141.202 Y121.744 E54.87183
G1 X140.577 Y122.398 E54.90944
G1 X139.895 Y122.994 E54.9471
G1 X139.164 Y123.528 E54.98474
G1 X138.389 Y123.995 E55.02235
G1 X137.575 Y124.392 E55.06001
G1 X136.73 Y124.716 E55.09763
G1 X135.859 Y124.964 E55.13528
G1 X134.97 Y125.134 E55.17291
G1 X133.778 Y125.237 E55.22266
G1 X133.17 Y125.25 E55.24794
G1 X114.075 Y125.249 E56.04182
G1 X113.377 Y125.24 E56.07084
G1 X112.473 Y125.189 E56.10848
G1 X111.577 Y125.057 E56.14614
G1 X110.697 Y124.848 E56.18374
G1 X109.838 Y124.561 E56.22139
G1 X109.008 Y124.2 E56.25902
G1 X108.213 Y123.767 E56.29666
G1 X107.459 Y123.265 E56.33432
G1 X106.753 Y122.699 E56.37194
G1 X106.099 Y122.073 E56.40958
G1 X105.503 Y121.391 E56.44723
G1 X104.969 Y120.66 E56.48487
G1 X104.502 Y119.884 E56.52253
G1 X104.106 Y119.07 E56.56016
G1 X103.782 Y118.225 E56.59778
G1 X103.535 Y117.354 E56.63542
G1 X103.365 Y116.465 E56.67305
G1 X103.263 Y115.268 E56.723
G1 X103.25 Y114.658 E56.74837
G1 X103.251 Y95.535 E57.54341
G1 X103.26 Y94.87 E57.57106
G1 X103.312 Y93.966 E57.6087
G1 X103.444 Y93.071 E57.64632
G1 X103.654 Y92.19 E57.68397
G1 X103.941 Y91.332 E57.72159
G1 X104.303 Y90.502 E57.75923
G1 X104.737 Y89.707 E57.79689
G1 X105.239 Y88.954 E57.83451
G1 X105.805 Y88.248 E57.87213
G1 F1500 E51.37213
;MESH:xyzCalibration_cube.stl
G0 F7500 X112.835 Y95.414
G0 X113.914 Y95.414
G0 X131.928 Y96.572
G0 X132.1 Y113.6
;TYPE:WALL-INNER
G1 F1500 E57.87213
G1 F2250 X132.1 Y96.4 E58.44421
G1 X114.9 Y96.4 E59.01628
G1 X114.9 Y113.6 E59.58836
G1 X132.1 Y113.6 E60.16043
G0 F7500 X132.5 Y114
G1 F2250 X132.5 Y96 E60.75911
G1 X114.5 Y96 E61.3578
G1 X114.5 Y114 E61.95648
G1 X132.5 Y114 E62.55516
G0 F7500 X132.9 Y114.4
G1 F2250 X132.9 Y95.6 E63.18045
G1 X114.1 Y95.6 E63.80574
G1 X114.1 Y114.4 E64.43103
