; generated by PrusaSlicer 2.9.2 on 2025-05-07 at 17:24:24 UTC

; 

; external perimeters extrusion width = 0.45mm
; perimeters extrusion width = 0.45mm
; infill extrusion width = 0.45mm
; solid infill extrusion width = 0.45mm
; top infill extrusion width = 0.40mm
; first layer extrusion width = 0.42mm

M190 S70 ; set bed temperature and wait for it to be reached
M104 S245 ; set temperature
;TYPE:Custom
G28 ; home all axes
G1 Z5 F5000 ; lift nozzle
M109 S245 ; set temperature and wait for it to be reached
G21 ; set units to millimeters
G90 ; use absolute coordinates
M82 ; use absolute distances for extrusion
G92 E0
; Filament gcode
M107
;LAYER_CHANGE
;Z:0.2
;HEIGHT:0.2
G1 E-2 F2400
G92 E0
G1 Z.2 F7800
G1 X38.891 Y66.197
G1 E2 F2400
;TYPE:Skirt/Brim
;WIDTH:0.42
G1 F1800
G1 X39.718 Y65.836 E2.02829
G1 X40.608 Y65.647 E2.05682
G1 X61.711 Y65.804 E2.71851
G1 X63.068 Y66.143 E2.76237
G1 X64.274 Y66.896 E2.80695
G1 X65.242 Y67.998 E2.85294
G1 X65.644 Y68.818 E2.88157
G1 X65.932 Y70.044 E2.92106
G1 X65.754 Y91.009 E3.57843
G1 X65.414 Y92.366 E3.62229
G1 X64.696 Y93.531 E3.6652
G1 X63.559 Y94.54 E3.71286
G1 X62.739 Y94.942 E3.74149
G1 X61.514 Y95.23 E3.78095
G1 X40.548 Y95.052 E4.43835
G1 X39.191 Y94.712 E4.48221
G1 X38.026 Y93.994 E4.52512
G1 X37.017 Y92.858 E4.57276
G1 X36.615 Y92.038 E4.60139
G1 X36.327 Y90.812 E4.64088
G1 X36.506 Y69.846 E5.29828
G1 X36.826 Y68.536 E5.34056
G1 X37.559 Y67.331 E5.38478
G1 X38.845 Y66.236 E5.43774
G1 X39.067 Y66.532 F7800
G1 F1800
G1 X39.851 Y66.189 E5.46457
G1 X40.634 Y66.023 E5.48967
G1 X41.321 Y66.008 E5.51122
G1 X61.685 Y66.181 E6.14974
G1 X62.946 Y66.501 E6.19053
G1 X64.01 Y67.166 E6.22987
G1 X64.916 Y68.188 E6.27269
G1 X65.283 Y68.928 E6.29859
G1 X65.555 Y70.064 E6.33522
G1 X65.377 Y90.983 E6.99114
G1 X65.056 Y92.244 E7.03194
G1 X64.391 Y93.308 E7.07128
G1 X63.369 Y94.214 E7.1141
G1 X62.63 Y94.581 E7.13997
G1 X61.494 Y94.853 E7.1766
G1 X40.574 Y94.675 E7.83256
G1 X39.313 Y94.354 E7.87336
G1 X38.25 Y93.69 E7.91266
G1 X37.344 Y92.667 E7.95551
G1 X36.977 Y91.928 E7.98138
G1 X36.705 Y90.792 E8.01801
G1 X36.882 Y69.872 E8.67397
G1 X37.184 Y68.656 E8.71326
G1 X37.864 Y67.555 E8.75383
G1 X39.021 Y66.571 E8.80145
G1 X39.245 Y66.865 F7800
G1 F1800
G1 X39.95 Y66.553 E8.82562
G1 X40.661 Y66.4 E8.84842
G1 X61.659 Y66.558 E9.50682
G1 X62.774 Y66.838 E9.54287
G1 X63.748 Y67.438 E9.57874
G1 X64.59 Y68.381 E9.61838
G1 X64.922 Y69.039 E9.64149
G1 X65.177 Y70.085 E9.67525
G1 X65 Y90.958 E10.32973
G1 X64.72 Y92.072 E10.36575
G1 X64.119 Y93.046 E10.40163
G1 X63.177 Y93.889 E10.44127
G1 X62.519 Y94.22 E10.46436
G1 X61.473 Y94.476 E10.49812
G1 X40.6 Y94.298 E11.1526
G1 X39.486 Y94.018 E11.18862
G1 X38.512 Y93.417 E11.2245
G1 X37.669 Y92.475 E11.26414
G1 X37.338 Y91.817 E11.28723
G1 X37.082 Y90.771 E11.32099
G1 X37.259 Y69.898 E11.97547
G1 X37.542 Y68.778 E12.01169
G1 X38.168 Y67.78 E12.04863
G1 X39.199 Y66.904 E12.09105
G1 X39.425 Y67.198 F7800
G1 F1800
G1 X40.051 Y66.917 E12.11256
G1 X40.689 Y66.777 E12.13304
G1 X41.321 Y66.762 E12.15286
G1 X61.634 Y66.934 E12.78978
G1 X62.603 Y67.175 E12.82109
G1 X63.487 Y67.712 E12.85352
G1 X64.267 Y68.575 E12.88999
G1 X64.561 Y69.152 E12.91029
G1 X64.8 Y70.106 E12.94113
G1 X64.623 Y90.933 E13.59417
G1 X64.382 Y91.901 E13.62545
G1 X63.845 Y92.785 E13.65788
G1 X62.982 Y93.565 E13.69435
G1 X62.405 Y93.86 E13.71467
G1 X61.452 Y94.098 E13.74547
G1 X40.625 Y93.921 E14.39851
G1 X39.656 Y93.681 E14.42981
G1 X38.772 Y93.143 E14.46226
G1 X37.993 Y92.28 E14.49871
G1 X37.698 Y91.703 E14.51903
G1 X37.459 Y90.75 E14.54984
G1 X37.636 Y69.923 E15.20288
G1 X37.879 Y68.951 E15.23429
G1 X38.436 Y68.046 E15.26761
G1 X39.379 Y67.237 E15.30657
G1 X39.606 Y67.529 F7800
G1 F1800
G1 X40.154 Y67.28 E15.32544
G1 X40.717 Y67.153 E15.34354
G1 X61.61 Y67.311 E15.99864
G1 X62.435 Y67.514 E16.02528
G1 X63.228 Y67.988 E16.05425
G1 X63.944 Y68.772 E16.08754
G1 X64.202 Y69.268 E16.10507
G1 X64.423 Y70.128 E16.13291
G1 X64.246 Y90.908 E16.78448
G1 X64.044 Y91.733 E16.81111
G1 X63.57 Y92.526 E16.84008
G1 X62.785 Y93.242 E16.87339
G1 X62.289 Y93.5 E16.89092
G1 X61.43 Y93.721 E16.91873
G1 X40.65 Y93.544 E17.5703
G1 X39.825 Y93.342 E17.59693
G1 X39.031 Y92.868 E17.62592
G1 X38.315 Y92.083 E17.65923
G1 X38.057 Y91.588 E17.67673
G1 X37.836 Y90.728 E17.70457
G1 X38.013 Y69.948 E18.35614
G1 X38.217 Y69.12 E18.38288
G1 X38.706 Y68.311 E18.41252
G1 X39.561 Y67.569 E18.44802
G1 X39.79 Y67.859 F7800
G1 F1800
G1 X40.259 Y67.643 E18.46421
G1 X40.746 Y67.53 E18.47989
G1 X41.32 Y67.516 E18.49789
G1 X61.585 Y67.688 E19.13331
G1 X62.269 Y67.853 E19.15537
G1 X62.971 Y68.265 E19.18089
G1 X63.623 Y68.971 E19.21102
G1 X63.844 Y69.387 E19.22579
G1 X64.046 Y70.15 E19.25054
G1 X63.869 Y90.883 E19.90063
G1 X63.704 Y91.567 E19.92269
G1 X63.293 Y92.269 E19.9482
G1 X62.586 Y92.921 E19.97835
G1 X62.171 Y93.142 E19.99309
G1 X61.407 Y93.344 E20.01787
G1 X40.674 Y93.167 E20.66796
G1 X39.99 Y93.002 E20.69002
G1 X39.288 Y92.591 E20.71553
G1 X38.636 Y91.884 E20.74568
G1 X38.416 Y91.469 E20.76041
G1 X38.214 Y90.705 E20.78519
G1 X38.39 Y69.972 E21.43528
G1 X38.556 Y69.287 E21.45738
G1 X38.979 Y68.573 E21.4834
G1 X39.745 Y67.899 E21.51539
G1 X39.974 Y68.19 F7800
G1 F1800
G1 X40.774 Y67.906 E21.54201
G1 X61.561 Y68.065 E22.19379
G1 X62.106 Y68.194 E22.21135
G1 X62.716 Y68.544 E22.2334
G1 X63.304 Y69.174 E22.26042
G1 X63.486 Y69.509 E22.27237
G1 X63.668 Y70.174 E22.29399
G1 X63.492 Y90.859 E22.94258
G1 X63.363 Y91.404 E22.96014
G1 X63.014 Y92.014 E22.98218
G1 X62.384 Y92.602 E23.0092
G1 X62.049 Y92.784 E23.02115
G1 X61.383 Y92.966 E23.0428
G1 X40.698 Y92.791 E23.69139
G1 X40.153 Y92.661 E23.70896
G1 X39.544 Y92.312 E23.73097
G1 X38.955 Y91.682 E23.75801
G1 X38.773 Y91.347 E23.76996
G1 X38.591 Y90.682 E23.79158
G1 X38.767 Y69.996 E24.4402
G1 X38.896 Y69.451 E24.45776
G1 X39.253 Y68.833 E24.48014
G1 X39.93 Y68.23 E24.50857
G1 X40.159 Y68.52 F7800
G1 F1800
G1 X40.803 Y68.283 E24.53009
G1 X41.32 Y68.27 E24.54631
G1 X61.538 Y68.442 E25.18025
G1 X61.947 Y68.537 E25.19342
G1 X62.463 Y68.825 E25.21195
G1 X62.987 Y69.379 E25.23586
G1 X63.291 Y70.199 E25.26328
G1 X63.116 Y90.836 E25.91036
G1 X63.02 Y91.245 E25.92353
G1 X62.733 Y91.761 E25.94204
G1 X62.178 Y92.286 E25.96599
G1 X61.359 Y92.589 E25.99337
G1 X40.722 Y92.414 E26.64045
G1 X40.312 Y92.319 E26.65365
G1 X39.796 Y92.031 E26.67218
G1 X39.272 Y91.476 E26.69611
G1 X38.968 Y90.657 E26.7235
G1 X39.144 Y70.02 E27.37058
G1 X39.239 Y69.61 E27.38378
G1 X39.531 Y69.09 E27.40248
G1 X40.115 Y68.56 E27.42721
G1 X40.346 Y68.849 F7800
G1 F1800
G1 X40.831 Y68.659 E27.44354
G1 X61.515 Y68.819 E28.09209
G1 X62.212 Y69.108 E28.11575
G1 X62.674 Y69.589 E28.13666
G1 X62.914 Y70.225 E28.15797
G1 X62.739 Y90.813 E28.80352
G1 X62.449 Y91.511 E28.82722
G1 X61.968 Y91.972 E28.84811
G1 X61.332 Y92.212 E28.86942
G1 X40.744 Y92.037 E29.51497
G1 X40.047 Y91.747 E29.53864
G1 X39.586 Y91.266 E29.55953
G1 X39.346 Y90.63 E29.58084
G1 X39.521 Y70.043 E30.22635
G1 X39.811 Y69.344 E30.25008
G1 X40.302 Y68.89 E30.27105
G1 X40.533 Y69.178 F7800
G1 F1800
G1 X40.859 Y69.036 E30.2822
G1 X41.32 Y69.024 E30.29666
G1 X61.493 Y69.196 E30.92919
G1 X61.965 Y69.395 E30.94525
G1 X62.364 Y69.805 E30.96319
G1 X62.536 Y70.254 E30.97827
G1 X62.362 Y90.791 E31.62222
G1 X62.163 Y91.263 E31.63828
G1 X61.752 Y91.662 E31.65624
G1 X61.304 Y91.834 E31.67129
G1 X40.766 Y91.66 E32.31527
G1 X40.294 Y91.461 E32.33133
G1 X39.895 Y91.05 E32.34929
G1 X39.723 Y90.602 E32.36434
G1 X39.898 Y70.065 E33.00829
G1 X40.096 Y69.593 E33.02434
G1 X40.489 Y69.219 E33.04135
G1 X40.722 Y69.506 F7800
G1 F1800
G1 X40.927 Y69.411 E33.04843
G1 X41.326 Y69.401 E33.06094
G1 X61.472 Y69.573 E33.69263
G1 X61.721 Y69.684 E33.70118
G1 X62.062 Y70.03 E33.71641
G1 X62.159 Y70.286 E33.72499
G1 X61.985 Y90.77 E34.36727
G1 X61.873 Y91.02 E34.37586
G1 X61.527 Y91.36 E34.39107
G1 X61.272 Y91.457 E34.39962
G1 X40.787 Y91.283 E35.04194
G1 X40.538 Y91.171 E35.0505
G1 X40.198 Y90.825 E35.06571
G1 X40.1 Y90.57 E35.07428
G1 X40.274 Y70.085 E35.7166
G1 X40.386 Y69.836 E35.72516
G1 X40.679 Y69.548 E35.73804
G1 X40.964 Y69.837 F7800
G1 F1800
G1 X41.026 Y69.776 E35.74077
G1 X61.413 Y69.949 E36.38001
G1 X61.753 Y70.255 E36.39435
G1 X61.608 Y90.711 E37.03575
G1 X61.303 Y91.052 E37.05009
G1 X40.846 Y90.906 E37.69152
G1 X40.506 Y90.601 E37.70584
G1 X40.651 Y70.145 E38.34724
G1 X40.921 Y69.879 E38.35912
G1 X41.139 Y70.154 F7800
G1 F1800
G1 X41.317 Y70.155 E38.3647
G1 X61.294 Y70.325 E38.99109
G1 X61.403 Y70.437 E38.99599
G1 X61.232 Y90.592 E39.62796
G1 X61.121 Y90.702 E39.63286
G1 X40.965 Y90.53 E40.26486
G1 X40.856 Y90.419 E40.26974
G1 X41.027 Y70.263 E40.90174
G1 X41.096 Y70.196 E40.90476
G92 E0
G1 X42.168 Y71.646 F7800
;TYPE:Perimeter
;WIDTH:0.419999
G1 F1800
G1 X42.171 Y71.315 E.01038
G1 X60.242 Y71.469 E.577
G1 X60.165 Y80.505 E.86033
G1 X60.088 Y89.54 E1.14363
G1 X42.017 Y89.387 E1.71025
G1 X42.168 Y71.706 E2.26464
G1 X41.796 Y71.111 F7800
G1 F1800
G1 X41.797 Y70.935 E2.27016
G1 X60.622 Y71.095 E2.86042
G1 X60.542 Y80.508 E3.15557
G1 X60.462 Y89.92 E3.45069
G1 X41.637 Y89.76 E4.04095
G1 X41.795 Y71.171 E4.62382
G1 X41.423 Y70.582 F7800
;TYPE:External perimeter
G1 F1800
G1 X41.423 Y70.555 E4.62467
G1 X61.003 Y70.721 E5.23861
G1 X60.919 Y80.511 E5.54558
G1 X60.836 Y90.301 E5.85255
G1 X41.257 Y90.134 E6.46646
G1 X41.422 Y70.642 E7.07764
G1 X41.813 Y70.554 F7800
G1 E5.07764 F2400
G92 E0
G1 X59.358 Y71.575 F7800
G1 E2 F2400
;TYPE:Solid infill
;WIDTH:0.420377
G1 F1800
G1 X59.953 Y72.17 E2.02641
G1 X59.949 Y72.699 E2.04301
G1 X58.991 Y71.741 E2.08553
G1 X58.453 Y71.737 E2.10242
G1 X59.944 Y73.228 E2.1686
G1 X59.94 Y73.758 E2.18523
G1 X57.914 Y71.732 E2.27516
G1 X57.376 Y71.728 E2.29205
G1 X59.935 Y74.287 E2.40563
G1 X59.931 Y74.816 E2.42223
G1 X56.838 Y71.723 E2.55952
G1 X56.299 Y71.718 E2.57644
G1 X59.926 Y75.345 E2.73743
G1 X59.922 Y75.875 E2.75406
G1 X55.761 Y71.714 E2.93875
G1 X55.222 Y71.709 E2.95567
G1 X59.917 Y76.404 E3.16406
G1 X59.913 Y76.933 E3.18066
G1 X54.684 Y71.705 E3.41273
G1 X54.146 Y71.7 E3.42962
G1 X59.908 Y77.463 E3.68539
G1 X59.904 Y77.992 E3.70199
G1 X53.607 Y71.696 E3.98147
G1 X53.069 Y71.691 E3.99836
G1 X59.899 Y78.521 E4.30152
G1 X59.895 Y79.051 E4.31815
G1 X52.53 Y71.686 E4.64505
G1 X51.992 Y71.682 E4.66194
G1 X59.89 Y79.58 E5.0125
G1 X59.886 Y80.109 E5.0291
G1 X51.454 Y71.677 E5.40336
G1 X50.915 Y71.673 E5.42028
G1 X59.881 Y80.639 E5.81825
G1 X59.877 Y81.168 E5.83485
G1 X50.377 Y71.668 E6.25652
G1 X49.839 Y71.663 E6.27341
G1 X59.872 Y81.697 E6.71876
G1 X59.868 Y82.226 E6.73536
G1 X49.3 Y71.659 E7.20441
G1 X48.762 Y71.654 E7.2213
G1 X59.863 Y82.756 E7.71405
G1 X59.859 Y83.285 E7.73065
G1 X48.223 Y71.65 E8.2471
G1 X47.685 Y71.645 E8.26399
G1 X59.854 Y83.814 E8.80412
G1 X59.85 Y84.344 E8.82075
G1 X47.147 Y71.641 E9.38459
G1 X46.608 Y71.636 E9.40151
G1 X59.845 Y84.873 E9.98905
G1 X59.841 Y85.402 E10.00565
G1 X46.07 Y71.631 E10.61689
G1 X45.531 Y71.627 E10.63381
G1 X59.836 Y85.932 E11.26875
G1 X59.832 Y86.461 E11.28535
G1 X44.993 Y71.622 E11.94399
G1 X44.455 Y71.618 E11.96088
G1 X59.827 Y86.99 E12.64318
G1 X59.823 Y87.519 E12.65978
G1 X43.916 Y71.613 E13.36581
G1 X43.378 Y71.609 E13.3827
G1 X59.818 Y88.049 E14.11241
G1 X59.814 Y88.578 E14.12901
G1 X42.84 Y71.604 E14.88242
G1 X42.451 Y71.601 E14.89463
G1 X42.45 Y71.748 E14.89924
G1 X59.809 Y89.107 E15.66974
G1 X59.808 Y89.255 E15.67439
G1 X59.42 Y89.252 E15.68657
G1 X42.446 Y72.278 E16.43998
G1 X42.441 Y72.807 E16.45658
G1 X58.881 Y89.247 E17.18629
G1 X58.343 Y89.242 E17.20318
G1 X42.437 Y73.336 E17.90918
G1 X42.432 Y73.866 E17.92582
G1 X57.804 Y89.238 E18.60812
G1 X57.266 Y89.233 E18.62501
G1 X42.428 Y74.395 E19.28361
G1 X42.423 Y74.924 E19.30021
G1 X56.728 Y89.229 E19.93515
G1 X56.189 Y89.224 E19.95207
G1 X42.419 Y75.453 E20.56329
G1 X42.414 Y75.983 E20.57993
G1 X55.651 Y89.22 E21.16747
G1 X55.113 Y89.215 E21.18436
G1 X42.41 Y76.512 E21.7482
G1 X42.405 Y77.041 E21.7648
G1 X54.574 Y89.21 E22.30493
G1 X54.036 Y89.206 E22.32182
G1 X42.401 Y77.571 E22.83825
G1 X42.396 Y78.1 E22.85485
G1 X53.497 Y89.201 E23.34758
G1 X52.959 Y89.197 E23.36447
G1 X42.392 Y78.629 E23.83352
G1 X42.387 Y79.159 E23.85016
G1 X52.421 Y89.192 E24.29551
G1 X51.882 Y89.188 E24.31243
G1 X42.383 Y79.688 E24.73408
G1 X42.378 Y80.217 E24.75068
G1 X51.344 Y89.183 E25.14865
G1 X50.806 Y89.178 E25.16554
G1 X42.374 Y80.746 E25.5398
G1 X42.369 Y81.276 E25.55644
G1 X50.267 Y89.174 E25.907
G1 X49.729 Y89.169 E25.92389
G1 X42.365 Y81.805 E26.25075
G1 X42.36 Y82.334 E26.26735
G1 X49.19 Y89.165 E26.57053
G1 X48.652 Y89.16 E26.58742
G1 X42.356 Y82.864 E26.86687
G1 X42.351 Y83.393 E26.88347
G1 X48.114 Y89.156 E27.13927
G1 X47.575 Y89.151 E27.15619
G1 X42.347 Y83.922 E27.38826
G1 X42.342 Y84.452 E27.4049
G1 X47.037 Y89.146 E27.61327
G1 X46.498 Y89.142 E27.63019
G1 X42.338 Y84.981 E27.81486
G1 X42.333 Y85.51 E27.83146
G1 X45.96 Y89.137 E27.99245
G1 X45.422 Y89.133 E28.00934
G1 X42.329 Y86.04 E28.14663
G1 X42.324 Y86.569 E28.16323
G1 X44.883 Y89.128 E28.27681
G1 X44.345 Y89.123 E28.2937
G1 X42.32 Y87.098 E28.38358
G1 X42.315 Y87.627 E28.40018
G1 X43.807 Y89.119 E28.4664
G1 X43.268 Y89.114 E28.48332
G1 X42.311 Y88.157 E28.5258
G1 X42.306 Y88.686 E28.5424
G1 X42.901 Y89.281 E28.56881
;LAYER_CHANGE
;Z:0.4
;HEIGHT:0.2
G1 E26.56881 F2400
G92 E0
G1 Z.4 F7800
M104 S240 ; set temperature
G1 X42.245 Y71.391
G1 E2 F2400
;TYPE:Perimeter
;WIDTH:0.449999
G1 F4200
G1 X60.166 Y71.543 E2.60663
G1 X60.09 Y80.504 E2.90996
G1 X60.014 Y89.465 E3.21329
G1 X42.093 Y89.312 E3.81992
G1 X42.245 Y71.451 E4.42451
G1 X41.842 Y70.981 F7800
G1 F4200
G1 X60.577 Y71.14 E5.05869
G1 X60.497 Y80.507 E5.37576
G1 X60.418 Y89.875 E5.69287
G1 X41.682 Y89.716 E6.32708
G1 X41.841 Y71.041 E6.95923
G1 X41.438 Y70.57 F7800
;TYPE:External perimeter
G1 F2100
G1 X60.987 Y70.736 E7.62096
G1 X60.904 Y80.511 E7.95184
G1 X60.821 Y90.286 E8.28272
G1 X41.272 Y90.119 E8.94445
G1 X41.438 Y70.63 E9.60415
G1 X41.834 Y70.574 F7800
G1 X42.658 Y71.732
;TYPE:Solid infill
;WIDTH:0.548776
G1 F1200
G1 X42.613 Y71.688 E9.6068
G1 X42.552 Y71.704 E9.60945
G1 X42.536 Y71.765 E9.6121
G1 X42.581 Y71.81 E9.61478
G1 X42.642 Y71.794 E9.61743
;WIDTH:0.449999
G1 X43.286 Y71.705 E9.63944
G1 X42.475 Y72.522 E9.67841
;WIDTH:0.41646
G1 X42.408 Y72.595 E9.68149
;WIDTH:0.38292
G1 X42.337 Y72.576 E9.68357
G1 X42.356 Y72.647 E9.68565
G1 X42.397 Y72.636 E9.68685
;WIDTH:0.449999
G1 X42.537 Y73.03 E9.701
G1 X43.857 Y71.71 E9.76419
G1 X44.428 Y71.715 E9.78352
G1 X42.532 Y73.611 E9.87428
G1 X42.527 Y74.192 E9.89395
G1 X44.999 Y71.72 E10.01228
G1 X45.569 Y71.725 E10.03157
G1 X42.522 Y74.772 E10.17743
G1 X42.517 Y75.353 E10.1971
G1 X46.14 Y71.73 E10.37053
G1 X46.711 Y71.734 E10.38986
G1 X42.512 Y75.934 E10.59089
G1 X42.507 Y76.514 E10.61052
G1 X47.282 Y71.739 E10.8391
G1 X47.853 Y71.744 E10.85843
G1 X42.502 Y77.095 E11.11458
G1 X42.497 Y77.675 E11.13421
G1 X48.424 Y71.749 E11.41791
G1 X48.994 Y71.754 E11.4372
G1 X42.492 Y78.256 E11.74845
G1 X42.487 Y78.837 E11.76812
G1 X49.565 Y71.759 E12.10694
G1 X50.136 Y71.764 E12.12627
G1 X42.482 Y79.417 E12.49264
G1 X42.477 Y79.998 E12.51231
G1 X50.707 Y71.768 E12.90627
G1 X51.278 Y71.773 E12.9256
G1 X42.472 Y80.579 E13.34714
G1 X42.468 Y81.159 E13.36677
G1 X51.849 Y71.778 E13.81583
G1 X52.42 Y71.783 E13.83516
G1 X42.463 Y81.74 E14.3118
G1 X42.458 Y82.32 E14.33143
G1 X52.99 Y71.788 E14.83559
G1 X53.561 Y71.793 E14.85492
G1 X42.453 Y82.901 E15.38665
G1 X42.448 Y83.482 E15.40632
G1 X54.132 Y71.797 E15.96565
G1 X54.703 Y71.802 E15.98498
G1 X42.443 Y84.062 E16.57186
G1 X42.438 Y84.643 E16.59153
G1 X55.274 Y71.807 E17.20598
G1 X55.845 Y71.812 E17.22531
G1 X42.433 Y85.224 E17.86733
G1 X42.428 Y85.804 E17.88696
G1 X56.415 Y71.817 E18.55651
G1 X56.986 Y71.822 E18.57584
G1 X42.423 Y86.385 E19.27296
G1 X42.418 Y86.966 E19.29263
G1 X57.557 Y71.827 E20.01732
G1 X58.128 Y71.831 E20.03665
G1 X42.413 Y87.546 E20.78892
G1 X42.408 Y88.127 E20.80859
G1 X58.699 Y71.836 E21.58843
G1 X59.27 Y71.841 E21.60776
G1 X42.403 Y88.707 E22.41515
G1 X42.38 Y88.895 E22.42156
;WIDTH:0.41646
G1 X42.357 Y89.082 E22.42741
;WIDTH:0.38292
G1 X42.286 Y89.063 E22.42949
G1 X42.305 Y89.134 E22.43157
G1 X42.346 Y89.123 E22.43277
;WIDTH:0.449999
